svg/color/gousd.svg

<svg width="240" height="240" viewBox="0 0 240 240" fill="none" xmlns="http://www.w3.org/2000/svg">
	<circle cx="120" cy="120" r="120" fill="#68B1F5"/>
	<path d="M119.63 213C119.63 213 191.755 178.791 191.755 139.496C191.755 109.021 191.755 89.2249 191.755 58.7498C145.968 37.7688 93.2984 37.7471 47.4999 58.704C47.5414 89.1943 47.5043 109.006 47.5043 139.496C47.5043 178.791 119.63 213 119.63 213Z" fill="white"/>
	<path fill-rule="evenodd" clip-rule="evenodd" d="M132.84 71.3319H123.541L122.424 79.2775C122.083 79.2694 121.74 79.2653 121.396 79.2653C105.845 79.2653 93.6191 88.3812 93.6191 102.645C93.6191 117.046 105.064 120.693 116.219 123.427L113.141 145.33C107.885 143.214 103.236 139.213 99.7321 133.746L89.1147 142.648C93.5743 149.974 101.996 155.231 111.437 157.452L110.134 166.727H119.433L120.573 158.617C120.883 158.624 121.193 158.627 121.503 158.627C137.375 158.627 150.674 149.297 150.674 134.175C150.674 119.079 138.537 115.334 127.026 112.698L129.861 92.5282C134.121 94.4341 137.381 97.747 140.056 101.894L150.03 93.3145C146.294 87.4763 139.845 82.7117 131.546 80.5379L132.84 71.3319ZM120.813 90.7411C112.637 90.7928 106.918 94.9625 106.918 101.251C106.918 106.759 110.909 108.774 118.021 110.61L120.813 90.7411ZM125.212 125.607L122.199 147.043C130.753 146.96 137.161 142.893 137.161 135.569C137.161 129.61 132.5 127.503 125.212 125.607Z" fill="#68B1F5"/>
</svg>

<svg xmlns="http://www.w3.org/2000/svg" width="240" height="240" fill="none" viewBox="0 0 240 240"><circle cx="120" cy="120" r="120" fill="#68B1F5"/><path fill="#fff" d="M119.63 213s72.125-34.209 72.125-73.504V58.75A173.26 173.26 0 0 0 47.5 58.704c.041 30.49.004 50.302.004 80.792 0 39.295 72.126 73.504 72.126 73.504"/><path fill="#68B1F5" fill-rule="evenodd" d="M132.84 71.332h-9.299l-1.117 7.946a43 43 0 0 0-1.028-.013c-15.551 0-27.777 9.116-27.777 23.38 0 14.401 11.445 18.048 22.6 20.782l-3.078 21.903c-5.256-2.116-9.905-6.117-13.409-11.584l-10.617 8.902c4.46 7.326 12.881 12.583 22.322 14.804l-1.303 9.275h9.299l1.14-8.11q.465.01.93.01c15.872 0 29.171-9.33 29.171-24.452 0-15.096-12.137-18.841-23.648-21.477l2.835-20.17c4.26 1.906 7.52 5.219 10.195 9.366l9.974-8.58c-3.736-5.838-10.185-10.602-18.484-12.776zm-12.027 19.41c-8.176.05-13.895 4.22-13.895 10.509 0 5.508 3.991 7.523 11.103 9.359zm4.399 34.865-3.013 21.436c8.554-.083 14.962-4.15 14.962-11.474 0-5.959-4.661-8.066-11.949-9.962" clip-rule="evenodd"/></svg>
